X:1
T: The Duke of Gordon's Birthday
C:William Marshall
R:Strathspey
Q: 128
K:G
M:4/4
L:1/16
|:D2|G3D GB3 G3D GB3|d3B g3B AA3 A4|G3D GB3 G3D GB3|D3C B,3A, G,G,3 -G,2D2|
G3D GB3 G3D GB3|d3B g3B AA3 A4|G3D GB3 G3D GB3|D3C B,3A, G,G,3 -G,2f2|
g3a b3g dd3 d3f|g3a b3g ee3 e3f|g3b eg3 dg3 Bg3|A3G A3B GG3 -G4|
g3a b3g dd3 d4|g3a b3g ee3 e3f|g3b eg3 db3 Bg3|A3G A3B GG3 -G2:|
